svgs/iriun_webcam.svg

<svg width="24" height="24" viewBox="0 0 24 24" fill="none" xmlns="http://www.w3.org/2000/svg">
<path d="M17 12C17 14.2091 15.2091 16 13 16C10.7909 16 9 14.2091 9 12C9 9.79086 10.7909 8 13 8C15.2091 8 17 9.79086 17 12Z" fill="#FFF1C0"/>
<path fill-rule="evenodd" clip-rule="evenodd" d="M20.0816 6.58836C18.9698 4.48447 17.0046 2.88311 14.7909 2.27681C13.0028 1.78726 10.7234 1.95784 9.09504 2.70306C5.6542 4.27783 3.58849 7.91252 4.06904 11.5463C4.33275 13.5404 5.09037 15.0305 6.59854 16.5211C8.37435 18.276 10.0783 18.9654 12.6304 18.9609C13.8374 18.959 14.2318 18.9037 15.0654 18.6199C17.809 17.6861 19.6924 15.8216 20.6519 13.0899C20.9509 12.2387 20.9983 11.8926 21 10.548C21.0023 8.78707 20.8138 7.974 20.0816 6.58836ZM18 12C18 14.7614 15.7614 17 13 17C10.2386 17 8 14.7614 8 12C8 9.23858 10.2386 7 13 7C15.7614 7 18 9.23858 18 12Z" fill="#FFF1C0"/>
<path d="M19.8599 20.9673C19.4287 20.4046 17.9369 19.2033 17.2259 18.8463C17.0168 18.7412 16.84 18.6617 16.8331 18.6693C16.8261 18.6771 16.6143 18.791 16.3622 18.9224C15.7379 19.248 14.7936 19.5117 13.5697 19.7021C12.2936 19.9006 10.7686 19.7094 9.23279 19.158L8.19221 18.7844L7.47911 19.2064C7.08694 19.4383 6.38772 19.9949 5.92537 20.4432C5.24069 21.1071 5.09246 21.3236 5.12585 21.6107C5.16199 21.9214 5.22105 21.962 5.62513 21.9538C5.87719 21.9486 6.69884 21.8163 7.45109 21.6597C10.5765 21.0089 14.8796 21.0035 17.9335 21.6465C19.591 21.9954 19.9119 22.0686 20.0495 21.9422C20.0876 21.9072 20.1117 21.8569 20.1462 21.7929C20.2657 21.5719 20.2183 21.435 19.8599 20.9673Z" fill="#FFF1C0"/>
</svg>

<svg xmlns="http://www.w3.org/2000/svg" viewBox="0 0 24 24"><path d="M19.86 20.967c-.431-.562-1.923-1.764-2.634-2.12-.21-.106-.386-.185-.393-.178-.007.008-.219.122-.47.253-.625.326-1.57.59-2.793.78-1.276.199-2.801.007-4.337-.544l-1.04-.374-.714.422c-.392.232-1.091.789-1.554 1.237-.684.664-.833.88-.8 1.168.037.31.096.351.5.343.252-.005 1.074-.138 1.826-.294 3.125-.651 7.429-.657 10.482-.014 1.658.35 1.979.423 2.116.296.039-.035.063-.085.097-.15.12-.22.072-.357-.286-.825m.222-14.379c-1.112-2.104-3.077-3.705-5.291-4.311-1.788-.49-4.068-.32-5.696.426-3.44 1.575-5.507 5.21-5.026 8.843.264 1.994 1.021 3.485 2.53 4.975 1.775 1.755 3.48 2.444 6.031 2.44 1.207-.002 1.602-.057 2.435-.341 2.744-.934 4.627-2.798 5.587-5.53.299-.851.346-1.197.348-2.542.002-1.76-.186-2.574-.918-3.96M18 12a5 5 0 1 1-10 0 5 5 0 0 1 10 0m-1 0a4 4 0 1 1-8 0 4 4 0 0 1 8 0"/></svg>
